build/images/icons/services-2.svg

<svg width="40" height="40" viewBox="0 0 40 40" fill="none" xmlns="http://www.w3.org/2000/svg">
<path d="M28.4618 40H3.13003C2.58485 40 2.14282 39.558 2.14282 39.0128V8.61476C2.14282 8.06957 2.58485 7.62755 3.13003 7.62755H28.4617C29.0069 7.62755 29.4489 8.06957 29.4489 8.61476V10.5603H31.9461C32.4912 10.5603 32.9333 11.0023 32.9333 11.5475C32.9333 12.0927 32.4912 12.5347 31.9461 12.5347H29.4489V15.0785H30.6842C31.2293 15.0785 31.6714 15.5205 31.6714 16.0657C31.6714 16.6109 31.2293 17.0529 30.6842 17.0529H29.4489V19.5968H31.9461C32.4912 19.5968 32.9333 20.0389 32.9333 20.5841C32.9333 21.1292 32.4912 21.5713 31.9461 21.5713H29.4489V24.1149H30.6842C31.2293 24.1149 31.6714 24.557 31.6714 25.1021C31.6714 25.6473 31.2293 26.0894 30.6842 26.0894H29.4489V39.0128C29.449 39.558 29.007 40 28.4618 40ZM4.11724 38.0256H27.4745V9.60197H4.11724V38.0256ZM20.5212 36.1858C17.9821 36.1858 15.9164 34.1202 15.9164 31.5812C15.9164 29.0422 17.9821 26.9766 20.5212 26.9766C23.0601 26.9766 25.1257 29.0422 25.1257 31.5812C25.1257 34.1202 23.0601 36.1858 20.5212 36.1858ZM20.5212 28.951C19.0707 28.951 17.8908 30.131 17.8908 31.5812C17.8908 33.0314 19.0707 34.2114 20.5212 34.2114C21.9714 34.2114 23.1513 33.0314 23.1513 31.5812C23.1513 30.131 21.9714 28.951 20.5212 28.951ZM36.8699 32.3724H32.3528C31.8076 32.3724 31.3656 31.9304 31.3656 31.3852C31.3656 30.8401 31.8076 30.398 32.3528 30.398H35.8827V1.97442H12.5254V5.09733C12.5254 5.64252 12.0834 6.08454 11.5382 6.08454C10.993 6.08454 10.551 5.64252 10.551 5.09733V0.987209C10.551 0.442023 10.993 0 11.5382 0H36.8698C37.415 0 37.857 0.442023 37.857 0.987209V31.3852C37.8571 31.9304 37.415 32.3724 36.8699 32.3724ZM12.9795 29.0307H8.17097C7.62578 29.0307 7.18376 28.5887 7.18376 28.0435C7.18376 27.4984 7.62578 27.0563 8.17097 27.0563H12.9795C13.5247 27.0563 13.9668 27.4984 13.9668 28.0435C13.9668 28.5887 13.5247 29.0307 12.9795 29.0307ZM23.4209 24.6607H8.17097C7.62578 24.6607 7.18376 24.2187 7.18376 23.6735C7.18376 23.1283 7.62578 22.6863 8.17097 22.6863H23.4209C23.9661 22.6863 24.4081 23.1283 24.4081 23.6735C24.4081 24.2187 23.9661 24.6607 23.4209 24.6607ZM23.4209 20.2907H8.17097C7.62578 20.2907 7.18376 19.8487 7.18376 19.3035C7.18376 18.7583 7.62578 18.3163 8.17097 18.3163H23.4209C23.9661 18.3163 24.4081 18.7583 24.4081 19.3035C24.4081 19.8487 23.9661 20.2907 23.4209 20.2907ZM12.9795 15.9207H8.17097C7.62578 15.9207 7.18376 15.4787 7.18376 14.9335C7.18376 14.3883 7.62578 13.9463 8.17097 13.9463H12.9795C13.5247 13.9463 13.9668 14.3883 13.9668 14.9335C13.9668 15.4787 13.5247 15.9207 12.9795 15.9207Z" fill="#EAC57E"/>
<path d="M20.5213 36.1858C17.9822 36.1858 15.9164 34.1202 15.9164 31.5812C15.9164 29.0422 17.9822 26.9766 20.5213 26.9766C23.0601 26.9766 25.1258 29.0422 25.1258 31.5812C25.1258 34.1202 23.0601 36.1858 20.5213 36.1858ZM20.5213 28.951C19.0708 28.951 17.8909 30.131 17.8909 31.5812C17.8909 33.0314 19.0708 34.2114 20.5213 34.2114C21.9715 34.2114 23.1513 33.0314 23.1513 31.5812C23.1513 30.131 21.9715 28.951 20.5213 28.951ZM12.9796 29.0307H8.17105C7.62586 29.0307 7.18384 28.5887 7.18384 28.0435C7.18384 27.4983 7.62586 27.0563 8.17105 27.0563H12.9796C13.5248 27.0563 13.9668 27.4983 13.9668 28.0435C13.9668 28.5887 13.5248 29.0307 12.9796 29.0307ZM23.421 24.6607H8.17105C7.62586 24.6607 7.18384 24.2187 7.18384 23.6735C7.18384 23.1283 7.62586 22.6863 8.17105 22.6863H23.421C23.9662 22.6863 24.4082 23.1283 24.4082 23.6735C24.4082 24.2187 23.9662 24.6607 23.421 24.6607ZM23.421 20.2907H8.17105C7.62586 20.2907 7.18384 19.8487 7.18384 19.3035C7.18384 18.7583 7.62586 18.3163 8.17105 18.3163H23.421C23.9662 18.3163 24.4082 18.7583 24.4082 19.3035C24.4082 19.8487 23.9662 20.2907 23.421 20.2907ZM12.9796 15.9207H8.17105C7.62586 15.9207 7.18384 15.4787 7.18384 14.9335C7.18384 14.3883 7.62586 13.9463 8.17105 13.9463H12.9796C13.5248 13.9463 13.9668 14.3883 13.9668 14.9335C13.9668 15.4787 13.5248 15.9207 12.9796 15.9207Z" fill="#EAC57E"/>
</svg>

<svg width="40" height="40" fill="none" xmlns="http://www.w3.org/2000/svg"><path d="M28.462 40H3.13a.987.987 0 01-.987-.987V8.615c0-.545.442-.987.987-.987h25.332c.545 0 .987.442.987.987v1.945h2.497a.987.987 0 010 1.975H29.45v2.543h1.235a.987.987 0 010 1.975H29.45v2.544h2.497a.987.987 0 010 1.974H29.45v2.544h1.235a.987.987 0 010 1.974H29.45v12.924a.987.987 0 01-.987.987zM4.117 38.026h23.357V9.602H4.117v28.424zm16.404-1.84a4.61 4.61 0 01-4.605-4.605 4.61 4.61 0 014.605-4.604 4.61 4.61 0 014.605 4.604 4.61 4.61 0 01-4.605 4.605zm0-7.235c-1.45 0-2.63 1.18-2.63 2.63s1.18 2.63 2.63 2.63 2.63-1.18 2.63-2.63-1.18-2.63-2.63-2.63zm16.349 3.421h-4.517a.987.987 0 010-1.974h3.53V1.974H12.525v3.123a.987.987 0 01-1.974 0V.987c0-.545.442-.987.987-.987H36.87c.545 0 .987.442.987.987v30.398a.987.987 0 01-.987.987zm-23.89-3.341H8.17a.987.987 0 010-1.975h4.809a.987.987 0 010 1.975zm10.44-4.37H8.172a.987.987 0 010-1.975h15.25a.987.987 0 010 1.975zm0-4.37H8.172a.987.987 0 010-1.975h15.25a.987.987 0 010 1.975zm-10.44-4.37H8.17a.987.987 0 010-1.975h4.809a.987.987 0 010 1.975z" fill="#EAC57E"/><path d="M20.521 36.186a4.61 4.61 0 01-4.605-4.605 4.61 4.61 0 014.605-4.604 4.61 4.61 0 014.605 4.604 4.61 4.61 0 01-4.605 4.605zm0-7.235c-1.45 0-2.63 1.18-2.63 2.63s1.18 2.63 2.63 2.63 2.63-1.18 2.63-2.63-1.18-2.63-2.63-2.63zm-7.541.08H8.17a.987.987 0 010-1.975h4.809a.987.987 0 010 1.975zm10.441-4.37H8.171a.987.987 0 010-1.975h15.25a.987.987 0 010 1.975zm0-4.37H8.171a.987.987 0 010-1.975h15.25a.987.987 0 010 1.975zM12.98 15.92H8.17a.987.987 0 010-1.975h4.809a.987.987 0 010 1.975z" fill="#EAC57E"/></svg>
